X: 41871
T: Vivement Vendredi
R: reel
M: 4/4
K: Bminor
|:"Bm"B,DFA Bcde|"G"efed "A"cedc|"Bm"BdcB "F#m"A3B|"A"c/d/edB "A"cAFA|
"Bm"B,DFA "Bm"Bcde|"G"efed "A"cedc|"Bm"BdcB "A"ABcA|1 "Bm"B2AcB4:|2 "Bm"B2Ac Bcde||
|:"D"effe "D"fecd|"A"e2ef "A"ecBA|"Bm"FB~B2 "G"GBde|"D"efed "A"cdeA|
"D"f2fe "D"fecd|"A"e2ef "A"ecBA|"Bm"FB~B2 "G"GBgf|1 "A"eacA "Bm"Bcde:|2 "A"eacA "Bm"B4||

